static/img/kroki/c85b0e954941b6ee27a4c6b68c59ab6a.svg

<?xml version="1.0" encoding="us-ascii" standalone="no"?><svg xmlns="http://www.w3.org/2000/svg" xmlns:xlink="http://www.w3.org/1999/xlink" contentStyleType="text/css" height="374px" preserveAspectRatio="none" style="width:280px;height:374px;" version="1.1" viewBox="0 0 280 374" width="280px" zoomAndPan="magnify"><defs/><g><!--class gcp_resource--><g id="elem_gcp_resource"><rect codeLine="23" fill="#3D176E" height="39.7891" id="gcp_resource" rx="2.5" ry="2.5" style="stroke:#000D19;stroke-width:0.5;" width="150" x="65" y="167.79"/><ellipse cx="80" cy="187.6845" fill="#ADD1B2" rx="11" ry="11" style="stroke:#181818;stroke-width:1.0;"/><path d="M82.9688,193.3252 Q82.3906,193.622 81.75,193.7627 Q81.1094,193.9189 80.4063,193.9189 Q77.9063,193.9189 76.5781,192.2783 Q75.2656,190.622 75.2656,187.497 Q75.2656,184.372 76.5781,182.7158 Q77.9063,181.0595 80.4063,181.0595 Q81.1094,181.0595 81.75,181.2158 Q82.4063,181.372 82.9688,181.6689 L82.9688,184.3877 Q82.3438,183.8095 81.75,183.5439 Q81.1563,183.2627 80.5313,183.2627 Q79.1875,183.2627 78.5,184.3408 Q77.8125,185.4033 77.8125,187.497 Q77.8125,189.5908 78.5,190.6689 Q79.1875,191.7314 80.5313,191.7314 Q81.1563,191.7314 81.75,191.4658 Q82.3438,191.1845 82.9688,190.6064 L82.9688,193.3252 Z " fill="#000000"/><text fill="#D9B8FF" font-family="Helvetica" font-size="17" lengthAdjust="spacing" textLength="108" x="99" y="193.5698">gcp_resource</text></g><!--class gcp_vertex_ai_tensorboard--><g id="elem_gcp_vertex_ai_tensorboard"><rect codeLine="26" fill="#3D176E" height="39.7891" id="gcp_vertex_ai_tensorboard" rx="2.5" ry="2.5" style="stroke:#000D19;stroke-width:0.5;" width="266" x="7" y="328.58"/><ellipse cx="22" cy="348.4745" fill="#ADD1B2" rx="11" ry="11" style="stroke:#181818;stroke-width:1.0;"/><path d="M24.9688,354.1152 Q24.3906,354.412 23.75,354.5527 Q23.1094,354.7089 22.4063,354.7089 Q19.9063,354.7089 18.5781,353.0683 Q17.2656,351.412 17.2656,348.287 Q17.2656,345.162 18.5781,343.5058 Q19.9063,341.8495 22.4063,341.8495 Q23.1094,341.8495 23.75,342.0058 Q24.4063,342.162 24.9688,342.4589 L24.9688,345.1777 Q24.3438,344.5995 23.75,344.3339 Q23.1563,344.0527 22.5313,344.0527 Q21.1875,344.0527 20.5,345.1308 Q19.8125,346.1933 19.8125,348.287 Q19.8125,350.3808 20.5,351.4589 Q21.1875,352.5214 22.5313,352.5214 Q23.1563,352.5214 23.75,352.2558 Q24.3438,351.9745 24.9688,351.3964 L24.9688,354.1152 Z " fill="#000000"/><text fill="#D9B8FF" font-family="Helvetica" font-size="17" lengthAdjust="spacing" textLength="224" x="41" y="354.3598">gcp_vertex_ai_tensorboard</text></g><!--class resource--><g id="elem_resource"><rect codeLine="29" fill="#3D176E" height="39.7891" id="resource" rx="2.5" ry="2.5" style="stroke:#000D19;stroke-width:0.5;" width="113" x="83.5" y="7"/><ellipse cx="98.5" cy="26.8945" fill="#ADD1B2" rx="11" ry="11" style="stroke:#181818;stroke-width:1.0;"/><path d="M101.4688,32.5352 Q100.8906,32.832 100.25,32.9727 Q99.6094,33.1289 98.9063,33.1289 Q96.4063,33.1289 95.0781,31.4883 Q93.7656,29.832 93.7656,26.707 Q93.7656,23.582 95.0781,21.9258 Q96.4063,20.2695 98.9063,20.2695 Q99.6094,20.2695 100.25,20.4258 Q100.9063,20.582 101.4688,20.8789 L101.4688,23.5977 Q100.8438,23.0195 100.25,22.7539 Q99.6563,22.4727 99.0313,22.4727 Q97.6875,22.4727 97,23.5508 Q96.3125,24.6133 96.3125,26.707 Q96.3125,28.8008 97,29.8789 Q97.6875,30.9414 99.0313,30.9414 Q99.6563,30.9414 100.25,30.6758 Q100.8438,30.3945 101.4688,29.8164 L101.4688,32.5352 Z " fill="#000000"/><text fill="#D9B8FF" font-family="Helvetica" font-size="17" lengthAdjust="spacing" textLength="71" x="117.5" y="32.7798">resource</text></g><!--reverse link resource to gcp_resource--><g id="link_resource_gcp_resource"><path codeLine="32" d="M140,65.05 C140,95.57 140,136.9 140,167.46 " fill="none" id="resource-backto-gcp_resource" style="stroke:#FFAF37;stroke-width:2.0;"/><polygon fill="none" points="140,47.05,134,65.05,146,65.05,140,47.05" style="stroke:#FFAF37;stroke-width:2.0;"/></g><!--reverse link gcp_resource to gcp_vertex_ai_tensorboard--><g id="link_gcp_resource_gcp_vertex_ai_tensorboard"><path codeLine="33" d="M140,225.84 C140,256.36 140,297.69 140,328.25 " fill="none" id="gcp_resource-backto-gcp_vertex_ai_tensorboard" style="stroke:#FFAF37;stroke-width:2.0;"/><polygon fill="none" points="140,207.84,134,225.84,146,225.84,140,207.84" style="stroke:#FFAF37;stroke-width:2.0;"/></g><!--SRC=[XP1BJyCm48Jl-HMMUgwKK45QYKkfXE1I8SezsiJhn6fYH-jDItdyTmY5uYHz7BtpUMTc2orHO5NpJbHOfKWkS6jjQY2en9p8RXUsj2H6Ie6Qn7tntXg-22oXGl60vGPPPz0dNWgThGqw9wuywGwoTKwsCNA_dWcC-vRGi4SjId1kpamwRHYzC7AMJfNga_sbeucCuXiSO9OaqYyIXg6CPdtaejNPtWTYfTzGHFxHbfPn47DWyKETJTaINiX1qJ_zPCOda5ARN5nxi-Tz9Z98dVcg06ctBQsWTBwDOoIqlAjnCMY5iwbKyL7uyHGSPEtfH9xL2Q6p3MKeteFWqvjla1XV4z09et6MKWiaVQZxyV2w_HYFnvtDGSVcNp_g47m1]--></g></svg>

<svg xmlns="http://www.w3.org/2000/svg" width="280" height="374" viewBox="0 0 280 374"><rect width="150" height="39.789" x="65" y="167.79" fill="#3D176E" rx="2.5" ry="2.5" style="stroke:#000d19;stroke-width:.5"/><circle cx="80" cy="187.685" r="11" fill="#ADD1B2" style="stroke:#181818;stroke-width:1"/><path d="M82.969 193.325q-.578.297-1.219.438-.64.156-1.344.156-2.5 0-3.828-1.64-1.312-1.657-1.312-4.782t1.312-4.781q1.328-1.656 3.828-1.656.703 0 1.344.156.656.156 1.219.453v2.719q-.625-.578-1.219-.844-.594-.281-1.219-.281-1.344 0-2.031 1.078-.687 1.062-.687 3.156t.687 3.172q.688 1.062 2.031 1.062.625 0 1.219-.265.594-.281 1.219-.86z"/><text x="99" y="193.57" fill="#D9B8FF" font-family="Helvetica" font-size="17" textLength="108">gcp_resource</text><rect width="266" height="39.789" x="7" y="328.58" fill="#3D176E" rx="2.5" ry="2.5" style="stroke:#000d19;stroke-width:.5"/><circle cx="22" cy="348.474" r="11" fill="#ADD1B2" style="stroke:#181818;stroke-width:1"/><path d="M24.969 354.115q-.578.297-1.219.438-.64.156-1.344.156-2.5 0-3.828-1.64-1.312-1.657-1.312-4.782t1.312-4.781q1.328-1.656 3.828-1.656.703 0 1.344.156.656.156 1.219.453v2.719q-.625-.579-1.219-.844-.594-.281-1.219-.281-1.343 0-2.031 1.078-.687 1.062-.687 3.156t.687 3.172q.688 1.062 2.031 1.062.625 0 1.219-.265.594-.281 1.219-.86z"/><text x="41" y="354.36" fill="#D9B8FF" font-family="Helvetica" font-size="17" textLength="224">gcp_vertex_ai_tensorboard</text><rect width="113" height="39.789" x="83.5" y="7" fill="#3D176E" rx="2.5" ry="2.5" style="stroke:#000d19;stroke-width:.5"/><circle cx="98.5" cy="26.895" r="11" fill="#ADD1B2" style="stroke:#181818;stroke-width:1"/><path d="M101.469 32.535q-.578.297-1.219.438-.64.156-1.344.156-2.5 0-3.828-1.64-1.312-1.657-1.312-4.782t1.312-4.781q1.328-1.656 3.828-1.656.703 0 1.344.156.656.156 1.219.453v2.719q-.625-.578-1.219-.844-.594-.281-1.219-.281-1.344 0-2.031 1.078-.687 1.062-.687 3.156T97 29.879q.688 1.062 2.031 1.062.625 0 1.219-.265.594-.281 1.219-.86z"/><text x="117.5" y="32.78" fill="#D9B8FF" font-family="Helvetica" font-size="17" textLength="71">resource</text><path fill="none" d="M140 65.05v102.41m0-120.41-6 18h12zm0 178.79v102.41m0-120.41-6 18h12z" style="stroke:#ffaf37;stroke-width:2"/></svg>
